!!!!SEGMENT: pl-cz--ii-87--002-005_grim-jozef--spiewy-do-dwoch-mszy-sanctus.krn
!!!cenid: 18xx:1177
!!!COM: Grim, Józef
!!!COM-rismID: pe30003883
!!!CDT: ~1800-~1899
!!!CNT:
!!!OPR: Śpiewy do dwóch mszy
!!!OTL: Sanctus
!!!OMV: 005
!!!PDT: 1888
!!!AGN: Sacred; Mass
!!!YEC: Copyright 2022 Narodowy Instytut Fryderyka Chopina (https://polishscores.org)
!!!YEM: License CC-BY-4.0 (https://creativecommons.org/licenses/by/4.0)
!!!SMS-siglum: PL-CZ
!!!SMS-shelfmark: II-87
!!!SMS-shelfwork: 002-005 M
!!!SMS-variant:
!!!SMS-altvar:
!!!NIFC-rismSourceID: 300033223
!!!NIFC-rismChildID: 300033225
!!!NIFC-islandoraID: pl-cz:33881
!!!URL-pdf-islandora: https://repozytorium.nifc.pl/islandora/object/pl-cz%3A33881/datastream/PDF/view
!!!URL-scan: https://polish.musicsources.pl/pl/lokalizacje/galeria/rekopisy/6814/1 @EN{Scan on Polish Music Sources Website} @PL{Skany w portalu Dziedzictwo Muzyki Polskiej w otwartym dostępie}
!!!IIIF:
!!!ONB-nifc: UWAGA: części Mszy: Kirie, Gloria, Credo, Offertorium, Sanctus, Benedictus, Agnus Dei
!!!AIN: 1 organ 1 vox
!!!key: F
!!!OMD: Moderato
**kern	**kern	**dynam	**kern	**text
*part2	*part2	*	*part1	*
*staff3	*staff2	*	*staff1	*
*I"Organ	*I"Organ	*	*I"Głos	*
*Iorgan	*Iorgan	*	*Ivox	*
*ICklav	*ICklav	*	*ICvox	*
*IGacmp	*IGacmp	*	*IGsolo	*
*clefF4	*clefG2	*	*clefG2	*
*k[b-]	*k[b-]	*	*k[b-]	*
*F:	*F:	*	*F:	*
*M4/4	*M4/4	*	*M4/4	*
*met(c)	*met(c)	*	*met(c)	*
=1	=1	=1	=1	=1
!	!	!LO:DY:rj	!	!
1F 1FF	1r	f	1r	.
=2	=2	=2	=2	=2
2F\	2a 2f 2c/	.	2a/	Swię-
2FF/	2f 2c 2A/	.	2f/	-ty!
=3	=3	=3	=3	=3
!	!	!LO:DY:rj	!	!
(4C\	4c/	p	1r	.
8F\L	8f/L	.	.	.
8A\J	8a/J	.	.	.
4c\)	4cc\	.	.	.
4A 4D\	4dd 4f#X/	.	.	.
=4	=4	=4	=4	=4
2A 2D\	2dd 2f#X/	.	1r	.
4G 4GG\	4b- 4g 4d/	.	.	.
4r	4r	.	.	.
=5	=5	=5	=5	=5
1G 1GG	1r	f	1r	.
=6	=6	=6	=6	=6
*	*^	*	*	*
2G\	2b-/	2g 2d\	.	2b-\	Swię-
2GG/	2g/	2d 2B-\	.	2g/	-ty!
*	*v	*v	*	*	*
=7	=7	=7	=7	=7
(4D\	(4d/	p	1r	.
8G\L	8g/L	.	.	.
8B-\J	8b-/J	.	.	.
4d\)	4dd\	.	.	.
4B- 4G\	4dd 4fn/)	.	.	.
=8	=8	=8	=8	=8
2.B- 2.G 2.C\	2dd 2f/	.	1r	.
.	4cc 4e/	.	.	.
4r	4r	.	.	.
!!LO:LB:g=original
=9	=9	=9	=9	=9
1r	(2cc\	.	(2cc\	swię-
.	4a/	.	4a/)	.
.	4f/)	.	4f/	-ty
=10	=10	=10	=10	=10
*	*^	*	*	*
4r	2e/	2ryy	.	2e/	Bo-
8c\L	.	.	.	.	.
8B-\J	.	.	.	.	.
4A\	4f/	2c\	.	4f/	-że
[4F\	4a/	.	.	4r	.
=11	=11	=11	=11	=11	=11
4F] 4BB-\	1dd	4d 4B-\	.	4r	.
4d 4B-\	.	4f\	.	2dd\	Ktoż
4c 4A\	.	4f#X\	.	.	.
4B- 4G\	.	4g\	.	4dd\	po-
=12	=12	=12	=12	=12	=12
*^	*	*	*	*	*
4A/	2F#X\	4dd/	2a\	.	(4dd\	-do-
4e-X/	.	4cc/	.	.	4cc\)	.
2d/	4G\	4b- 4g/	2ryy	.	4b-\	-ła
.	4D\	4a 4f#X/	.	.	4a/	cię
*v	*v	*	*	*	*	*
*	*v	*v	*	*	*
=13	=13	=13	=13	=13
4G\	2a 2f#X 2d/	.	2a/	zmie-
4D\	.	.	.	.
4GG/	4b- 4g 4d/	.	4b-/	-rzyć!
4r;	4r;	.	4r;	.
=14	=14	=14	=14	=14
*^	*	*	*	*
2r	1r	2b- 2g/	.	2b-/	Czło-
4r	.	2a 2f/	.	2a/	-wiek
8r	.	.	.	.	.
8Bn/	.	.	.	.	.
=15	=15	=15	=15	=15	=15
1c	4r	4a 4f/	.	4a 4f/	tyl-
.	8.C\L	2g 2e/	.	4g/	-ko
.	16BBn\Jk	.	.	.	.
.	4C\	.	.	4r	.
.	4C\	4r	.	4r	.
!!LO:LB:g=original
=16	=16	=16	=16	=16	=16
2r	1r	2cc 2a\	.	2cc\	klęk-
4r	.	2b- 2g\	.	2b-\	-nąc
8r	.	.	.	.	.
8c#X/	.	.	.	.	.
=17	=17	=17	=17	=17	=17
2d/	4r	4b- 4g/	.	4b-\	mo-
.	8.D\L	2a 2f/	.	4a/	-że
.	16C#X\Jk	.	.	.	.
4D/	4D\	.	.	2r	.
4r	4ryy	8a/L	.	.	.
.	.	8g/J	.	.	.
*v	*v	*	*	*	*
=18	=18	=18	=18	=18
*	*^	*	*	*
4r	2f/	4r	.	4r	.
4d\	.	4f\	.	4f/	i
4c\	[2f/	4e\	.	2f/	wproch
4B-\	.	4d\	.	.	.
=19	=19	=19	=19	=19	=19
!	!LO:N:vis=2	!	!	!	!
4A\	2.f/]	4c\	.	2f/	czo-
4B- 4BB-\	.	4d\	.	.	.
4A 4AA\	.	4c\	.	4f/	-łem
4F 4FF\	4a/	4c\	.	4a/	u-
=20	=20	=20	=20	=20	=20
*^	*	*	*	*	*
2A/	1C	1cc	2f\	.	1cc	-de-
4G/	.	.	4e\	.	.	.
4B-/	.	.	4g\	.	.	.
*	*	*v	*v	*	*	*
=21	=21	=21	=21	=21	=21
2A/	2F\	2f/	.	2f/	-rzyc.
4r	[2FF\	4r	.	2r	.
4C/	.	4f 4A/	.	.	.
=22	=22	=22	=22	=22	=22
2D/	1FF]	1f 1B-	.	1r	.
2D-X/	.	.	.	.	.
=23	=23	=23	=23	=23	=23
1C;	1FF	1f 1A;	.	1r;	.
*v	*v	*	*	*	*
==	==	==	==	==
*-	*-	*-	*-	*-
!!!system-decoration: <s1>(s2,s3)
!!!ENC: Berenika Jozajtis
!!!END: 2020-11-07
!!!ENC: Marta Lawrence
!!!END: 2021-11-14
